pieces/kosal/kw.svg

<svg xmlns="http://www.w3.org/2000/svg" viewBox="0 0 81 81"><style>.st0{fill:none}.st1{fill:#fff}.st2{fill:#cfcecf}</style><path class="st0" d="M0 0h81v81H0z"/><path class="st1" d="M58 25.9c-6 0-9.1 2.6-10.6 4.1l-7 12.2-7-12.2C32 28.5 29 25.9 23 25.9c-9.4 0-14.9 7.7-14.9 15.3 0 8.6 3.7 11.5 8.6 21.7V71h47.6v-8.1c4.9-10.1 8.6-13.1 8.6-21.7 0-7.6-5.5-15.3-14.9-15.3z"/><path class="st1" d="M35.3 32.8l5.2 10.7 5.2-10.7-3.1-11 7.9 2.4v-7.6l-7.9 1 1.7-7.3h-7.6l1.7 7.3-7.9-1v7.6l7.9-2.4z"/><path class="st2" d="M64.7 27.4C71.8 40 58 58.6 45.9 59.9l19.4 2.6 6.6-13.4 1-9.9-1.7-5.2-2.6-3.6-3.9-3zM33.6 30.1c1.1 5.4-1.6 14.6-5.4 20.5S17.7 61.4 17.7 61.4l22.8-1.6V42.6l-6.9-12.5z"/><path class="st2" d="M53.1 60.6v9.9H64v-7.6zM49.5 17.7l-1.3 2.8-7.1-.2 8.4 3.3h1zM43.1 11.3L40.5 13v6.2l1.6-1zM41.8 21.5v11.7l-1.3 7L45 34zM39.9 20.6h-9.4v3.6z"/><path d="M36.4 51.2l4.1 6 4.1-6-4.1-6z"/><path d="M69.8 29.9c-3-3.4-7.2-5.2-11.8-5.2-4.8 0-8.6 1.5-11.5 4.5l-.5.8-1.9-6.7 7.4 2.2V15.4l-7.6 1 1.7-7.1H35.4l1.7 7.1-7.6-1v10.1l7.4-2.2-1.9 6.8-.4-.7-.1-.2v-.1c-2.9-3-6.7-4.5-11.5-4.5-10.1 0-16.1 8.4-16.1 16.6 0 6.4 2 10 4.8 14.9l.6 1c1 1.7 2.1 3.7 3.2 6v9.1h50.1v-9.1c1.2-2.3 2.2-4.3 3.2-6l.6-1c2.8-4.9 4.8-8.5 4.8-14.9 0-4.1-1.6-8.2-4.4-11.3zm-29.9-9.6l-8.4 2.5v-5.1l8.2 1-1.8-7.4h5.2l-1.8 7.4 8.2-1v5.1l-8.4-2.5 3.5 12.2-4.1 7.2-4.1-7.2 3.5-12.2zM63 69.8H17.8v-6.5C21.6 62.6 31 61 40.5 61c9.3 0 18.6 1.5 22.5 2.2v6.6zm4.2-14.9c-1 1.6-3 4.7-3.8 5.9-4.1-.7-13.4-2.2-23-2.2-9.7 0-19.2 1.5-23.1 2.2-.8-1.2-2.8-4.2-3.7-5.9l-.1-.1C10.8 50 9.1 47 9.1 41.3c0-9.1 7-14 13.6-14 4 0 7.2 1.2 9.6 3.6l8 13.9 8-13.9c2.4-2.4 5.6-3.6 9.6-3.6 8.9 0 13.7 7.2 13.7 14 .1 5.7-1.6 8.7-4.4 13.6z"/></svg>

<svg width="81" height="81" viewBox="0 0 81 81" fill="none" xmlns="http://www.w3.org/2000/svg">
<path d="M58 25.9C52 25.9 48.9 28.5 47.4 30L40.4 42.2L33.4 30C32 28.5 29 25.9 23 25.9C13.6 25.9 8.10001 33.6 8.10001 41.2C8.10001 49.8 11.8 52.7 16.7 62.9V71H64.3V62.9C69.2 52.8 72.9 49.8 72.9 41.2C72.9 33.6 67.4 25.9 58 25.9V25.9Z" fill="white"/>
<path d="M35.3 32.8L40.5 43.5L45.7 32.8L42.6 21.8L50.5 24.2V16.6L42.6 17.6L44.3 10.3H36.7L38.4 17.6L30.5 16.6V24.2L38.4 21.8L35.3 32.8Z" fill="white"/>
<path d="M64.7 27.4C71.8 40 58 58.6 45.9 59.9L65.3 62.5L71.9 49.1L72.9 39.2L71.2 34L68.6 30.4L64.7 27.4V27.4ZM33.6 30.1C34.7 35.5 32 44.7 28.2 50.6C24.4 56.5 17.7 61.4 17.7 61.4L40.5 59.8V42.6L33.6 30.1Z" fill="#CFCECF"/>
<path d="M53.1 60.6V70.5H64V62.9L53.1 60.6ZM49.5 17.7L48.2 20.5L41.1 20.3L49.5 23.6H50.5L49.5 17.7ZM43.1 11.3L40.5 13V19.2L42.1 18.2L43.1 11.3ZM41.8 21.5V33.2L40.5 40.2L45 34L41.8 21.5ZM39.9 20.6H30.5V24.2L39.9 20.6Z" fill="#CFCECF"/>
<path d="M36.4 51.2L40.5 57.2L44.6 51.2L40.5 45.2L36.4 51.2Z" fill="black"/>
<path d="M69.8 29.9C66.8 26.5 62.6 24.7 58 24.7C53.2 24.7 49.4 26.2 46.5 29.2L46 30L44.1 23.3L51.5 25.5V15.4L43.9 16.4L45.6 9.3H35.4L37.1 16.4L29.5 15.4V25.5L36.9 23.3L35 30.1L34.6 29.4L34.5 29.2V29.1C31.6 26.1 27.8 24.6 23 24.6C12.9 24.6 6.89999 33 6.89999 41.2C6.89999 47.6 8.89999 51.2 11.7 56.1L12.3 57.1C13.3 58.8 14.4 60.8 15.5 63.1V72.2H65.6V63.1C66.8 60.8 67.8 58.8 68.8 57.1L69.4 56.1C72.2 51.2 74.2 47.6 74.2 41.2C74.2 37.1 72.6 33 69.8 29.9V29.9ZM39.9 20.3L31.5 22.8V17.7L39.7 18.7L37.9 11.3H43.1L41.3 18.7L49.5 17.7V22.8L41.1 20.3L44.6 32.5L40.5 39.7L36.4 32.5L39.9 20.3V20.3ZM63 69.8H17.8V63.3C21.6 62.6 31 61 40.5 61C49.8 61 59.1 62.5 63 63.2V69.8ZM67.2 54.9C66.2 56.5 64.2 59.6 63.4 60.8C59.3 60.1 50 58.6 40.4 58.6C30.7 58.6 21.2 60.1 17.3 60.8C16.5 59.6 14.5 56.6 13.6 54.9L13.5 54.8C10.8 50 9.09999 47 9.09999 41.3C9.09999 32.2 16.1 27.3 22.7 27.3C26.7 27.3 29.9 28.5 32.3 30.9L40.3 44.8L48.3 30.9C50.7 28.5 53.9 27.3 57.9 27.3C66.8 27.3 71.6 34.5 71.6 41.3C71.7 47 70 50 67.2 54.9V54.9Z" fill="black"/>
</svg>
